svgs/greenstash.svg

<svg xmlns="http://www.w3.org/2000/svg" viewBox="0 0 192 192"><path d="M69.778 57.698a14.723 14.723 0 0 1-4.451-8.777 14.748 14.748 0 0 1 2.067-9.627 14.665 14.665 0 0 1 7.658-6.159 14.603 14.603 0 0 1 9.813.073 14.661 14.661 0 0 1 7.566 6.272 14.742 14.742 0 0 1-2.654 18.367M57.21 46.94a44.644 44.644 0 0 0-27.964 13.645 44.936 44.936 0 0 0-12.329 28.647c-4.029 40.065 22.512 73.824 22.512 73.824H58.91a64.658 64.658 0 0 0 7.467-9.533h25.358a40.449 40.449 0 0 0 7.468 9.533h19.481a101.709 101.709 0 0 0 7.319-11.352s33.824-8.199 33.824-31.347H175.5V87.822h-11.864a50.621 50.621 0 0 0-10.979-24.107A50.357 50.357 0 0 0 131.03 48.5a24.052 24.052 0 0 0-8.446-14.192 23.898 23.898 0 0 0-15.581-5.359c-3.102 0-1.398 6.121-1.398 16.101 0 1.706.056 1.614-3.674 1.669" fill="none" stroke="#000" stroke-width="12" stroke-linecap="round" stroke-linejoin="round"/><path d="M124.857 90.715s.775-6.121 10.572-6.121c9.798 0 10.573 6.121 10.573 6.121M59.428 58.069h41.032m-33.27 48.227s-1.012 12.947 15.044 12.947c16.057 0 15.044-9.533 15.044-9.533 0-12.315-30.09-6.455-30.09-18.808 0 0-1.013-9.905 15.044-9.905 16.056 0 15.044 12.947 15.044 12.947m-14.93 30.903V74.763" fill="none" stroke="#000" stroke-width="12" stroke-linecap="round" stroke-linejoin="round"/></svg>

<svg
    xmlns="http://www.w3.org/2000/svg"
    viewBox="0 0 192 192"
    id="vector">
    <path
        id="path"
        d="M 69.778 57.698 C 67.334 55.374 65.761 52.273 65.327 48.921 C 64.893 45.57 65.623 42.168 67.394 39.294 C 69.165 36.419 71.871 34.243 75.052 33.135 C 78.234 32.027 81.7 32.052 84.865 33.208 C 88.03 34.363 90.703 36.579 92.431 39.48 C 94.16 42.38 94.84 45.792 94.356 49.137 C 93.873 52.481 92.255 55.559 89.777 57.847 M 57.21 46.94 C 46.564 47.983 36.638 52.826 29.246 60.585 C 21.854 68.343 17.477 78.512 16.917 89.232 C 12.888 129.297 39.429 163.056 39.429 163.056 L 58.91 163.056 C 61.691 160.12 64.191 156.928 66.377 153.523 L 91.735 153.523 C 93.733 157.059 96.251 160.273 99.203 163.056 L 118.684 163.056 C 121.372 159.439 123.817 155.647 126.003 151.704 C 126.003 151.704 159.827 143.505 159.827 120.357 L 175.5 120.357 L 175.5 87.822 L 163.636 87.822 C 162.179 78.95 158.388 70.626 152.657 63.715 C 146.926 56.803 139.459 51.55 131.03 48.5 C 129.976 42.917 126.982 37.887 122.584 34.308 C 118.186 30.73 112.663 28.83 107.003 28.949 C 103.901 28.949 105.605 35.07 105.605 45.05 C 105.605 46.756 105.661 46.664 101.931 46.719"
        fill="none"
        stroke="#000000"
        stroke-width="12"
        stroke-linecap="round"
        stroke-linejoin="round"/>
    <path
        id="path_1"
        d="M 124.857 90.715 C 124.857 90.715 125.632 84.594 135.429 84.594 C 145.227 84.594 146.002 90.715 146.002 90.715 M 59.428 58.069 L 100.46 58.069 M 67.19 106.296 C 67.19 106.296 66.178 119.243 82.234 119.243 C 98.291 119.243 97.278 109.71 97.278 109.71 C 97.278 97.395 67.188 103.255 67.188 90.902 C 67.188 90.902 66.175 80.997 82.232 80.997 C 98.288 80.997 97.276 93.944 97.276 93.944 M 82.346 124.847 L 82.346 74.763"
        fill="none"
        stroke="#000000"
        stroke-width="12"
        stroke-linecap="round"
        stroke-linejoin="round"/>
</svg>
